X: 1
T: Dash To Portobello
R: reel
M: 4/4
L: 1/8
K: Emin
FA|:BE (3EEE EDB,A,|D2 FE D~A,3|B,EED EFGA|B2 eB dBAc|
|B~E3 EDB,A,|D2 FE D~A,3|B,EED EFGA|1 BdAF GEEc:|2 BdAF GE E2||
|:g2 eg bgeg|fd(3ddd Adfd|g2 eg bgeg|(3efg af geef|
|~g3a bgeg|f~d3 Adfd| g2 ga (3bag af|1 gfed Bdef:|2 gfed Bded||


Tune 533	Setting 24069

